src/assets/filled/Celo.svg

<svg width="24" height="24" viewBox="0 0 24 24"  xmlns="http://www.w3.org/2000/svg">
<path d="M9 22C12.866 22 16 18.866 16 15C16 11.134 12.866 8 9 8C5.13401 8 2 11.134 2 15C2 18.866 5.13401 22 9 22Z" />
<path d="M22.0001 9C22.0001 11.74 20.4301 14.11 18.1401 15.25C17.8301 15.41 17.4801 15.16 17.4501 14.82C17.1101 10.37 13.6001 6.89 9.18007 6.55C8.83007 6.52 8.59008 6.17 8.75008 5.86C9.89008 3.57 12.2601 2 15.0001 2C18.8701 2 22.0001 5.13 22.0001 9Z" />
</svg>

<?xml version="1.0" encoding="UTF-8"?>
<svg width="24" height="24" viewBox="0 0 24 24" xmlns="http://www.w3.org/2000/svg">
 <path d="m9 22c3.866 0 7-3.134 7-7s-3.134-7-7-7c-3.866 0-7 3.134-7 7s3.134 7 7 7z"/>
 <path d="m22 9c0 2.74-1.57 5.11-3.86 6.25-0.31 0.16-0.66-0.09-0.69-0.43-0.34-4.45-3.85-7.93-8.27-8.27-0.35-0.03-0.58999-0.38-0.42999-0.69 1.14-2.29 3.51-3.86 6.25-3.86 3.87 0 7 3.13 7 7z"/>
</svg>
